assets/img/dark/ic-unique-trade-types.svg

<?xml version="1.0" encoding="UTF-8"?>
<svg width="96px" height="96px" viewBox="0 0 96 96" version="1.1" xmlns="http://www.w3.org/2000/svg" xmlns:xlink="http://www.w3.org/1999/xlink">
    <!-- Generator: Sketch 46.2 (44496) - http://www.bohemiancoding.com/sketch -->
    <title>Artboard 2</title>
    <desc>Created with Sketch.</desc>
    <defs></defs>
    <g id="Page-1" stroke="none" stroke-width="1" fill="none" fill-rule="evenodd">
        <g id="Artboard-2">
            <g id="Group-2">
                <rect id="Rectangle-2" fill="#D8D8D8" opacity="0" x="0" y="0" width="96" height="96"></rect>
                <polyline id="Path-4" stroke="#DEDEDE" stroke-width="3" stroke-linecap="round" stroke-linejoin="round" points="31.4867499 88.5 49.5 70.5 67.5 88.5"></polyline>
                <rect id="Rectangle-7" fill="#FFFFFF" x="6" y="12" width="84" height="60" rx="3"></rect>
                <rect id="Rectangle" fill="#DEDEDE" x="3" y="12" width="90" height="6" rx="3"></rect>
                <rect id="Rectangle-Copy" fill="#DEDEDE" x="3" y="66" width="90" height="6" rx="3"></rect>
                <g id="Group" transform="translate(25.000000, 28.000000)" stroke-linecap="round" stroke-width="3" stroke="#DEDEDE" stroke-linejoin="round">
                    <polyline id="Path-5" points="0.5 27.5 15.5 12.5 24.5 21.5 45.5 0.5"></polyline>
                    <polyline id="Path-6" points="36.5 0.5 45.5 0.5 45.5 9.5"></polyline>
                </g>
                <circle id="Oval" fill="#E98024" cx="84" cy="18" r="12"></circle>
                <path d="M83.5346589,22.7446443 L80.5034049,24.3382688 L80.5034049,24.3382688 C80.0145603,24.5952696 79.4099331,24.4073231 79.1529323,23.9184785 C79.0505933,23.7238181 79.0152786,23.50085 79.0524554,23.2840924 L79.6313734,19.9087414 L79.6313734,19.9087414 C79.6870114,19.5843474 79.5794629,19.2533472 79.3437768,19.02361 L76.8914408,16.6331732 L76.8914408,16.6331732 C76.4959572,16.247672 76.4878649,15.6145587 76.8733661,15.2190752 C77.0268747,15.0615915 77.2280171,14.9591043 77.4456542,14.9274798 L80.8346992,14.4350228 L80.8346992,14.4350228 C81.1604093,14.3876943 81.4419749,14.1831249 81.5876369,13.8879815 L83.1032639,10.8169858 L83.1032639,10.8169858 C83.3476862,10.3217321 83.9473121,10.1183931 84.4425657,10.3628154 C84.6397783,10.4601456 84.7994058,10.6197731 84.8967361,10.8169858 L86.4123631,13.8879815 L86.4123631,13.8879815 C86.5580251,14.1831249 86.8395907,14.3876943 87.1653008,14.4350228 L90.5543458,14.9274798 L90.5543458,14.9274798 C91.1008907,15.0068975 91.4795721,15.5143403 91.4001545,16.0608852 C91.36853,16.2785222 91.2660428,16.4796646 91.1085592,16.6331732 L88.6562232,19.02361 L88.6562232,19.02361 C88.4205371,19.2533472 88.3129886,19.5843474 88.3686266,19.9087414 L88.9475446,23.2840924 L88.9475446,23.2840924 C89.0409056,23.8284288 88.6753178,24.3453847 88.1309813,24.4387457 C87.9142237,24.4759226 87.6912556,24.4406079 87.4965951,24.3382688 L84.4653411,22.7446443 L84.4653411,22.7446443 C84.1740171,22.5914862 83.8259829,22.5914862 83.5346589,22.7446443 Z" id="Star" fill="#FFFFFF"></path>
            </g>
        </g>
    </g>
</svg>

<svg width="96" height="96" viewBox="0 0 96 96" xmlns="http://www.w3.org/2000/svg"><title>Artboard 2</title><g fill="none" fill-rule="evenodd"><path stroke="#DEDEDE" stroke-width="3" stroke-linecap="round" stroke-linejoin="round" d="M31.487 88.5l18.013-18 18 18"/><rect fill="#FFF" x="6" y="12" width="84" height="60" rx="3"/><rect fill="#DEDEDE" x="3" y="12" width="90" height="6" rx="3"/><rect fill="#DEDEDE" x="3" y="66" width="90" height="6" rx="3"/><g stroke-linecap="round" stroke-width="3" stroke="#DEDEDE" stroke-linejoin="round"><path d="M25.5 55.5l15-15 9 9 21-21"/><path d="M61.5 28.5h9v9"/></g><circle fill="#E98024" cx="84" cy="18" r="12"/><path d="M83.535 22.745l-3.032 1.593a1 1 0 0 1-1.45-1.054l.578-3.375a1 1 0 0 0-.287-.885l-2.453-2.39a1 1 0 0 1 .555-1.707l3.389-.492a1 1 0 0 0 .753-.547l1.515-3.071a1 1 0 0 1 1.794 0l1.515 3.071a1 1 0 0 0 .753.547l3.39.492a1 1 0 0 1 .554 1.706l-2.453 2.39a1 1 0 0 0-.287.886l.579 3.375a1 1 0 0 1-1.451 1.054l-3.032-1.593a1 1 0 0 0-.93 0z" fill="#FFF"/></g></svg>
